src/static/logos/appcelerator.svg

<?xml version="1.0" encoding="UTF-8" standalone="no"?>
<svg width="256px" height="224px" viewBox="0 0 256 224" version="1.1" xmlns="http://www.w3.org/2000/svg" xmlns:xlink="http://www.w3.org/1999/xlink" preserveAspectRatio="xMidYMid">
	<g>
		<path d="M254.808984,210.372492 L136.108492,4.78258824 C134.538267,2.05009626 131.619594,0.366245989 128.466824,0.366245989 C125.314053,0.366245989 122.40907,2.04872727 120.830631,4.78258824 L2.1246631,210.372492 C0.542117647,213.100877 0.542117647,216.469947 2.1246631,219.203807 C3.7031016,221.933561 6.6135615,223.611936 9.76359358,223.611936 L247.172791,223.611936 C250.324193,223.611936 253.230545,221.933561 254.808984,219.203807 C256.391529,216.469947 256.391529,213.100877 254.808984,210.372492" fill="#B01C33"></path>
		<path d="M143.793968,163.421818 C136.642396,172.587166 128.59277,174.598203 121.213947,174.598203 C113.391572,174.598203 104.898396,172.138139 104.898396,160.516834 C104.898396,148.447872 112.72077,145.092492 127.926075,145.092492 L143.793968,145.092492 L143.793968,163.421818 L143.793968,163.421818 Z M202.375529,172.748706 L173.769241,160.223872 L176.915166,168.560984 L165.25416,170.730824 L165.25416,113.130824 C165.25416,88.1016898 144.913797,83.6278503 127.926075,83.6278503 C109.366759,83.6278503 91.4919358,85.8620321 91.4919358,85.8620321 L91.4919358,102.848385 L93.0566845,104.413134 C93.0566845,104.413134 110.043037,102.177583 124.124406,102.177583 C136.642396,102.177583 143.793968,107.98892 143.793968,118.048214 L143.793968,128.107508 L122.112,128.107508 C102.215187,128.107508 83.2260107,136.599316 83.2260107,161.859807 C83.2260107,186.884834 97.7509305,193.149305 113.173904,193.149305 C133.960556,193.149305 143.344941,177.504556 143.344941,177.504556 L144.237519,177.504556 L143.793968,189.357219 L145.353241,190.915123 L179.60385,184.866952 L179.286246,193.77493 L202.375529,172.748706 L202.375529,172.748706 Z" fill="#FFFFFF"></path>
	</g>
</svg>

<svg width="256" height="224" xmlns="http://www.w3.org/2000/svg" preserveAspectRatio="xMidYMid"><path d="M254.809 210.372l-118.7-205.59a8.815 8.815 0 00-15.278 0L2.125 210.373a8.807 8.807 0 000 8.832 8.822 8.822 0 007.639 4.408h237.409a8.816 8.816 0 007.636-4.408 8.807 8.807 0 000-8.832" fill="#B01C33"/><path d="M143.794 163.422c-7.152 9.165-15.201 11.176-22.58 11.176-7.822 0-16.316-2.46-16.316-14.081 0-12.07 7.823-15.425 23.028-15.425h15.868v18.33zm58.582 9.327l-28.607-12.525 3.146 8.337-11.66 2.17v-57.6c0-25.03-20.341-29.503-37.329-29.503-18.56 0-36.434 2.234-36.434 2.234v16.986l1.565 1.565s16.986-2.235 31.067-2.235c12.518 0 19.67 5.81 19.67 15.87v10.06h-21.682c-19.897 0-38.886 8.491-38.886 33.752 0 25.025 14.525 31.29 29.948 31.29 20.787 0 30.17-15.645 30.17-15.645h.894l-.444 11.852 1.56 1.558 34.25-6.048-.318 8.908 23.09-21.026z" fill="#FFF"/></svg>
